X:1
T:Pachelbel's Frolics x2
L:1/8
Q:1/4=180
M:4/4
K:Dmaj
"D"z2 A2- A2 .A2 |"A" z2 A2- A2 .A2 |"Bm" z2 F2- F2 .F2 |"F#m" z2 F2- F2 .F2 |
"G"z2 D2- D2 .D2 |"D" z2 F2- F2 .F2 |"G" D2 G2 B2 G2 |1"A7" A2 G2"A" !>!!^!E4 :|
|2 "A"A2 G2"D" F4 |:"D"z2 A2 z2 .A2 |"A" z2 A2 z2 .A2 |"Bm" z2 F2 z2 .F2 |
"F#m"z2 F2 z2 .F2 |"G" z2 D2 z2 .D2 |"D"z2 F2 z2 .F2 |"G" D2 G2 B2 G2 |
|1 "A7"A2 G2"A" !>!!^!E4 :|2"A" A2 G2"D" F4 ||"A" A2 .G2 z4 |"D"!fermata!F8 |

